dist/images/svg/sprite/arcticons-money-wallet.svg

<svg width="33" height="32" viewBox="0 0 33 32" fill="none" xmlns="http://www.w3.org/2000/svg">
<path d="M27.8122 5.66675H4.47884C3.74246 5.66675 3.14551 6.2637 3.14551 7.00008V25.0001C3.14551 25.7365 3.74246 26.3334 4.47884 26.3334H27.8122C28.5486 26.3334 29.1455 25.7365 29.1455 25.0001V7.00008C29.1455 6.2637 28.5486 5.66675 27.8122 5.66675Z" stroke="black" stroke-width="0.551515" stroke-linecap="round" stroke-linejoin="round"/>
<path d="M12.3721 11.2C11.7367 11.2018 11.128 11.4554 10.6793 11.9053C10.2307 12.3552 9.97876 12.9646 9.97876 13.6C9.97876 14.2354 10.2307 14.8448 10.6793 15.2947C11.128 15.7446 11.7367 15.9982 12.3721 16H13.1854H13.9988C14.3136 16 14.6254 16.0621 14.9162 16.1828C15.207 16.3035 15.4711 16.4804 15.6935 16.7033C15.9158 16.9263 16.0919 17.1909 16.2118 17.4821C16.3317 17.7732 16.393 18.0851 16.3921 18.4C16.393 18.7149 16.3317 19.0268 16.2118 19.3179C16.0919 19.6091 15.9158 19.8737 15.6935 20.0967C15.4711 20.3196 15.207 20.4965 14.9162 20.6172C14.6254 20.7379 14.3136 20.8 13.9988 20.8M16.1454 12C15.4788 11.4467 14.7721 11.1933 13.1654 11.1933H12.3721M10.2054 20C10.8721 20.5533 11.5854 20.8067 13.1854 20.8067H13.9988M13.1854 22V10M24.3788 13.6H29.1454V18.4H24.3788C23.8748 18.4 23.3916 18.1998 23.0353 17.8435C22.6789 17.4872 22.4788 17.0039 22.4788 16.5V15.5C22.4788 14.9961 22.6789 14.5128 23.0353 14.1565C23.3916 13.8002 23.8748 13.6 24.3788 13.6Z" stroke="black" stroke-width="0.551515" stroke-linecap="round" stroke-linejoin="round"/>
<path d="M24.4589 16.5335C24.7534 16.5335 24.9922 16.2947 24.9922 16.0001C24.9922 15.7056 24.7534 15.4668 24.4589 15.4668C24.1643 15.4668 23.9255 15.7056 23.9255 16.0001C23.9255 16.2947 24.1643 16.5335 24.4589 16.5335Z" fill="black"/>
</svg>

<svg width="33" height="32" fill="none" xmlns="http://www.w3.org/2000/svg"><path d="M27.812 5.667H4.48c-.737 0-1.333.597-1.333 1.333v18c0 .736.596 1.333 1.333 1.333h23.333c.737 0 1.333-.596 1.333-1.333V7c0-.736-.596-1.333-1.333-1.333Z" stroke="#000" stroke-width=".552" stroke-linecap="round" stroke-linejoin="round"/><path d="M12.372 11.2a2.4 2.4 0 0 0 0 4.8H14a2.393 2.393 0 0 1 2.393 2.4A2.392 2.392 0 0 1 14 20.8m2.146-8.8c-.666-.553-1.373-.807-2.98-.807h-.793M10.205 20c.667.553 1.38.807 2.98.807H14M13.185 22V10m11.194 3.6h4.766v4.8H24.38a1.9 1.9 0 0 1-1.9-1.9v-1a1.9 1.9 0 0 1 1.9-1.9Z" stroke="#000" stroke-width=".552" stroke-linecap="round" stroke-linejoin="round"/><path d="M24.459 16.534a.533.533 0 1 0 0-1.067.533.533 0 0 0 0 1.066Z" fill="#000"/></svg>
